src/activities/baby_tangram/resource/m-truck/front_road.svg

<?xml version="1.0" encoding="UTF-8" standalone="no"?>
<!-- Created with Inkscape (http://www.inkscape.org/) -->

<svg
   xmlns:dc="http://purl.org/dc/elements/1.1/"
   xmlns:cc="http://creativecommons.org/ns#"
   xmlns:rdf="http://www.w3.org/1999/02/22-rdf-syntax-ns#"
   xmlns:svg="http://www.w3.org/2000/svg"
   xmlns="http://www.w3.org/2000/svg"
   xmlns:sodipodi="http://sodipodi.sourceforge.net/DTD/sodipodi-0.dtd"
   xmlns:inkscape="http://www.inkscape.org/namespaces/inkscape"
   width="113.91727mm"
   height="34.214252mm"
   viewBox="0 0 403.64386 121.2316"
   id="svg5273"
   version="1.1"
   inkscape:version="0.92.1 r15371"
   sodipodi:docname="front_road.svg">
  <defs
     id="defs5275" />
  <sodipodi:namedview
     id="base"
     pagecolor="#ffffff"
     bordercolor="#666666"
     borderopacity="1.0"
     inkscape:pageopacity="0.0"
     inkscape:pageshadow="2"
     inkscape:zoom="1.4"
     inkscape:cx="385.39335"
     inkscape:cy="-90.812771"
     inkscape:document-units="px"
     inkscape:current-layer="layer1"
     showgrid="false"
     fit-margin-top="0"
     fit-margin-left="0"
     fit-margin-right="0"
     fit-margin-bottom="0"
     inkscape:window-width="1884"
     inkscape:window-height="1051"
     inkscape:window-x="0"
     inkscape:window-y="0"
     inkscape:window-maximized="1" />
  <metadata
     id="metadata5278">
    <rdf:RDF>
      <cc:Work
         rdf:about="">
        <dc:format>image/svg+xml</dc:format>
        <dc:type
           rdf:resource="http://purl.org/dc/dcmitype/StillImage" />
        <dc:title></dc:title>
        <dc:date>2017</dc:date>
        <dc:creator>
          <cc:Agent>
            <dc:title>Timothée Giet</dc:title>
          </cc:Agent>
        </dc:creator>
        <cc:license
           rdf:resource="http://creativecommons.org/licenses/by-sa/4.0/" />
      </cc:Work>
      <cc:License
         rdf:about="http://creativecommons.org/licenses/by-sa/4.0/">
        <cc:permits
           rdf:resource="http://creativecommons.org/ns#Reproduction" />
        <cc:permits
           rdf:resource="http://creativecommons.org/ns#Distribution" />
        <cc:requires
           rdf:resource="http://creativecommons.org/ns#Notice" />
        <cc:requires
           rdf:resource="http://creativecommons.org/ns#Attribution" />
        <cc:permits
           rdf:resource="http://creativecommons.org/ns#DerivativeWorks" />
        <cc:requires
           rdf:resource="http://creativecommons.org/ns#ShareAlike" />
      </cc:License>
    </rdf:RDF>
  </metadata>
  <g
     inkscape:label="Calque 1"
     inkscape:groupmode="layer"
     id="layer1"
     transform="translate(141.82192,-291.7464)">
    <path
       style="font-size:12px;fill:#999999;fill-opacity:1;fill-rule:evenodd;stroke:none;stroke-width:1.27213025"
       d="M 123.25977 -0.63671875 C 122.77626 -0.63444275 122.27888 -0.5820665 121.77539 -0.4765625 L 121.82031 -0.48632812 L 40.765625 10.480469 L 40.757812 10.480469 C 37.331722 11.045258 35.513661 13.842705 34.625 16.029297 L 34.576172 16.142578 L 34.576172 16.3125 C 34.34606 17.011999 34.148268 17.636288 34.058594 18.203125 C 33.963447 18.804277 33.977053 19.401092 34.291016 19.914062 C 34.542976 20.325652 34.958203 20.6057 35.470703 20.792969 L 17.535156 20.792969 C 9.4647884 20.792969 2.9492188 27.335098 2.9492188 35.433594 L 2.9492188 60.154297 C 0.68850345 64.941009 -0.63671875 70.222746 -0.63671875 75.941406 C -0.63671875 79.308318 -0.59427858 81.225992 -0.36328125 82.253906 C -0.30546792 82.510877 -0.25441804 82.719833 -0.068359375 82.951172 C 0.024653956 83.066841 0.17643384 83.197144 0.3828125 83.246094 C 0.58919116 83.295054 0.80267559 83.243768 0.94140625 83.171875 C 1.2188462 83.028366 1.3304202 82.85195 1.4609375 82.654297 C 1.5914442 82.456633 1.7157427 82.223168 1.8496094 81.945312 C 2.3727176 80.859517 3.0597386 79.034613 3.9667969 76.755859 C 5.0516706 79.531828 6.9426641 81.897646 9.3691406 83.542969 C 7.4542869 104.50557 23.15705 124.0011 46.535156 128.41992 C 71.771574 133.19001 96.421259 118.60837 101.58203 95.820312 C 102.32627 92.534025 102.61297 89.259179 102.50195 86.042969 L 103.85156 86.042969 C 103.8465 86.298471 103.83008 86.551997 103.83008 86.808594 C 103.83008 110.08072 124.74382 128.92578 150.51367 128.92578 C 176.28352 128.92578 197.19922 110.08072 197.19922 86.808594 C 197.19922 86.55199 197.1828 86.298477 197.17773 86.042969 L 204.83789 86.042969 C 208.4753 90.308312 213.86994 93.015625 219.91992 93.015625 L 283.68555 93.015625 C 289.73553 93.015625 295.13156 90.308312 298.76953 86.042969 L 316.68555 86.042969 C 316.68554 86.054096 316.68555 86.065042 316.68555 86.076172 C 316.68555 109.34831 337.60125 128.19727 363.37109 128.19727 C 389.14094 128.19727 410.05664 109.34831 410.05664 86.076172 C 410.05664 86.065043 410.05665 86.054096 410.05664 86.042969 L 416.60352 86.042969 C 424.67388 86.042969 431.18945 79.502803 431.18945 71.404297 L 431.18945 35.433594 C 431.18945 27.335098 424.67388 20.792969 416.60352 20.792969 L 120.55273 20.792969 C 121.13676 20.638239 121.70264 20.445768 122.22266 20.177734 C 123.55504 19.490982 124.63748 18.392012 125.1875 16.873047 L 125.19336 16.851562 L 128.58789 4.9628906 C 129.0816 3.2218347 128.35527 1.5592814 127.02734 0.54882812 C 126.36337 0.043601469 125.55594 -0.31664 124.66016 -0.5 C 124.21226 -0.59167466 123.74327 -0.63899475 123.25977 -0.63671875 z "
       transform="matrix(0.93750002,0,0,0.93750002,-141.82192,291.7464)"
       id="rect875" />
  </g>
</svg>

<!--Created with Inkscape (http://www.inkscape.org/)--><svg xmlns:dc="http://purl.org/dc/elements/1.1/" xmlns:cc="http://creativecommons.org/ns#" xmlns:rdf="http://www.w3.org/1999/02/22-rdf-syntax-ns#" xmlns="http://www.w3.org/2000/svg" xmlns:sodipodi="http://sodipodi.sourceforge.net/DTD/sodipodi-0.dtd" xmlns:inkscape="http://www.inkscape.org/namespaces/inkscape" width="113.91727mm" height="34.214252mm" viewBox="0 0 403.64386 121.2316" inkscape:version="0.92.1 r15371" sodipodi:docname="front_road.svg"><sodipodi:namedview pagecolor="#ffffff" bordercolor="#666666" borderopacity="1.0" inkscape:pageopacity="0.0" inkscape:pageshadow="2" inkscape:zoom="1.4" inkscape:cx="385.39335" inkscape:cy="-90.812771" inkscape:document-units="px" inkscape:current-layer="layer1" showgrid="false" fit-margin-top="0" fit-margin-left="0" fit-margin-right="0" fit-margin-bottom="0" inkscape:window-width="1884" inkscape:window-height="1051" inkscape:window-x="0" inkscape:window-y="0" inkscape:window-maximized="1"/><metadata><rdf:RDF><cc:Work><dc:format>image/svg+xml</dc:format><dc:type rdf:resource="http://purl.org/dc/dcmitype/StillImage"/><dc:title/><dc:date>2017</dc:date><dc:creator><cc:Agent><dc:title>Timothée Giet</dc:title></cc:Agent></dc:creator><cc:license rdf:resource="http://creativecommons.org/licenses/by-sa/4.0/"/></cc:Work><cc:License rdf:about="http://creativecommons.org/licenses/by-sa/4.0/"><cc:permits rdf:resource="http://creativecommons.org/ns#Reproduction"/><cc:permits rdf:resource="http://creativecommons.org/ns#Distribution"/><cc:requires rdf:resource="http://creativecommons.org/ns#Notice"/><cc:requires rdf:resource="http://creativecommons.org/ns#Attribution"/><cc:permits rdf:resource="http://creativecommons.org/ns#DerivativeWorks"/><cc:requires rdf:resource="http://creativecommons.org/ns#ShareAlike"/></cc:License></rdf:RDF></metadata><path style="font-size:12px;fill:#999;fill-opacity:1;fill-rule:evenodd;stroke:none;stroke-width:1.27213025" d="M123.26-.637c-.484.003-.981.055-1.485.16l.045-.01L40.766 10.48h-.008c-3.426.565-5.244 3.363-6.133 5.55l-.049.113v.17c-.23.699-.428 1.323-.517 1.89-.096.601-.082 1.198.232 1.711.252.412.667.692 1.18.879H17.535c-8.07 0-14.586 6.542-14.586 14.64v24.721C.69 64.941-.637 70.223-.637 75.941c0 3.367.043 5.285.274 6.313.058.257.109.466.295.697a.839.839 0 0 0 .45.295.843.843 0 0 0 .56-.074c.277-.144.388-.32.519-.518a6.1 6.1 0 0 0 .389-.709c.523-1.085 1.21-2.91 2.117-5.19a14.63 14.63 0 0 0 5.402 6.788c-1.915 20.963 13.788 40.458 37.166 44.877 25.237 4.77 49.886-9.812 55.047-32.6a38.2 38.2 0 0 0 .92-9.777h1.35c-.005.255-.022.509-.022.766 0 23.272 20.914 42.117 46.684 42.117 25.77 0 46.685-18.845 46.685-42.117 0-.257-.016-.51-.021-.766h7.66c3.637 4.265 9.032 6.973 15.082 6.973h63.766c6.05 0 11.446-2.708 15.084-6.973h17.916v.033c0 23.272 20.915 42.121 46.685 42.121 25.77 0 46.686-18.849 46.686-42.12v-.034h6.547c8.07 0 14.585-6.54 14.585-14.639v-35.97c0-8.099-6.515-14.641-14.585-14.641H120.553a8.243 8.243 0 0 0 1.67-.615c1.332-.687 2.414-1.786 2.965-3.305l.005-.021 3.395-11.89c.494-1.74-.233-3.403-1.56-4.413A5.826 5.826 0 0 0 124.66-.5a6.823 6.823 0 0 0-1.4-.137z" transform="scale(.9375)" inkscape:label="Calque 1" inkscape:groupmode="layer"/></svg>
